X: 1
T: Sligo Maid, The
Z: slainte
S: https://thesession.org/tunes/399#setting13246
R: reel
M: 4/4
L: 1/8
K: Ador
|A2BA Bdef|gedB AGEF|G2BG dGBG|DEGA BAGB|
A2BA Bdef|gedB AGEG|B2GB ABGE|DEGA BAAA:|
|eaag a2ga|b2gb abge|dggf g3e|dega b2ag|
eaag a2ga|b2gb abge|dg~g2 edBd|efgd BAAA:|

